dist/svg/static/poi-last-destination-large.svg

<svg xmlns="http://www.w3.org/2000/svg" width="48" height="48" viewBox="0 0 48 48"><path fill="none" stroke="currentColor" d="M37.5 17.5c0-7.7-6.3-14-14-14s-14 6.3-14 14 14 27 14 27 14-19.3 14-27z"/><g fill="none" stroke="currentColor"><path d="M17.4 21c1.2 2.1 3.5 3.5 6.1 3.5 3.9 0 7-3.1 7-7s-3.1-7-7-7c-2.6 0-4.616 1.096-6.519 3.304-.346.401-.481.696-.481.696"/><path d="M21 14.5h-4.5V10"/></g><path fill="none" stroke="currentColor" d="M23.5 14v4.5H27"/></svg>

<?xml version="1.0" encoding="UTF-8" standalone="no"?>
<svg width="48px" height="48px" viewBox="0 0 48 48" version="1.1" xmlns="http://www.w3.org/2000/svg" xmlns:xlink="http://www.w3.org/1999/xlink">
    <!-- Generator: sketchtool 46.2 (44496) - http://www.bohemiancoding.com/sketch -->
    <title>poi-last-destination-large</title>
    <desc>Created with sketchtool.</desc>
    <defs></defs>
    <g id="icons-published" stroke="none" stroke-width="1" fill="none" fill-rule="evenodd">
        <g id="briefing" transform="translate(-2304.000000, -1306.000000)"></g>
        <g id="poi-last-destination-large" stroke="#000000">
            <path d="M37.5,17.5 C37.5,9.8 31.2,3.5 23.5,3.5 C15.8,3.5 9.5,9.8 9.5,17.5 C9.5,25.2 23.5,44.5 23.5,44.5 C23.5,44.5 37.5,25.2 37.5,17.5 Z" id="Shape"></path>
            <path d="M17.4,21 C18.6,23.1 20.9,24.5 23.5,24.5 C27.4,24.5 30.5,21.4 30.5,17.5 C30.5,13.6 27.4,10.5 23.5,10.5 C20.9,10.5 18.9,11.6 17,13.8 C16.7,14.2 16.5,14.5 16.5,14.5" id="Shape"></path>
            <polyline id="Shape" points="21 14.5 16.5 14.5 16.5 10"></polyline>
            <polyline id="Shape" points="23.5 14 23.5 18.5 27 18.5"></polyline>
        </g>
    </g>
</svg>
